static/icons/puzzle.svg

<svg fill="none" height="700" viewBox="0 0 700 700" width="700" xmlns="http://www.w3.org/2000/svg" xmlns:xlink="http://www.w3.org/1999/xlink"><clipPath id="a"><rect height="700" rx="120" width="700"/></clipPath><g clip-path="url(#a)"><rect fill="#dcf2ff" height="700" rx="120" width="700"/><g clip-rule="evenodd" fill-rule="evenodd"><path d="m470.148 480.722h249.483v-233.404c0-14.775-11.977-26.752-26.752-26.752h-222.731v74.752c-4.686-1.283-9.631-1.97-14.743-1.97-29.784 0-53.929 23.313-53.929 52.07s24.145 52.069 53.929 52.069c5.112 0 10.057-.687 14.743-1.97z" fill="#e15285"/><path d="m543.709 470.049c-1.983-5.504-3.064-11.439-3.064-17.626 0-28.714 23.277-51.992 51.992-51.992 28.714 0 51.991 23.278 51.991 51.992 0 6.187-1.08 12.122-3.063 17.626h78.066v222.73c0 14.775-11.977 26.752-26.752 26.752h-229.401v-249.482z" fill="#ffc93d"/><path d="m397.663 490.468c0-7.262-1.486-14.176-4.17-20.456h76.655v75.294c5.749-2.189 11.986-3.388 18.503-3.388 28.715 0 51.992 23.277 51.992 51.991s-23.277 51.992-51.992 51.992c-6.517 0-12.754-1.199-18.503-3.389v76.689h-222.302c-14.775 0-26.752-11.977-26.752-26.752v-222.437h76.656c-2.684 6.28-4.17 13.194-4.17 20.456 0 28.757 23.3 52.069 52.041 52.069 28.742 0 52.042-23.312 52.042-52.069z" fill="#33a1fd"/><path d="m159.98 328.338-72.7718-26.659 77.4108-211.3157c5.082-13.873 20.448-20.9994 34.321-15.9174l211.316 77.4111-26.396 72.057c-4.712-4.103-10.24-7.43-16.456-9.707-27.285-9.996-57.507 4.021-67.503 31.306-9.995 27.285 4.021 57.507 31.307 67.502 6.216 2.278 12.585 3.309 18.832 3.22l-26.396 72.057-72.772-26.658c.365 6.892-.628 13.969-3.152 20.859-9.995 27.285-40.217 41.302-67.503 31.306-27.285-9.995-41.301-40.217-31.306-67.502 2.524-6.89 6.338-12.934 11.069-17.959z" fill="#69cb84"/></g></g></svg>

<svg width="700" height="700" viewBox="0 0 700 700" fill="none" xmlns="http://www.w3.org/2000/svg">
<g clip-path="url(#clip0)">
<rect width="700" height="700" rx="120" fill="#DCF2FF"/>
<path fill-rule="evenodd" clip-rule="evenodd" d="M470.148 480.722L719.631 480.722L719.631 247.318C719.631 232.543 707.654 220.566 692.879 220.566L470.148 220.566L470.148 295.318C465.462 294.035 460.517 293.348 455.405 293.348C425.621 293.348 401.476 316.661 401.476 345.418C401.476 374.175 425.621 397.487 455.405 397.487C460.517 397.487 465.462 396.8 470.148 395.517L470.148 480.722Z" fill="#E15285"/>
<path fill-rule="evenodd" clip-rule="evenodd" d="M543.709 470.049C541.726 464.545 540.645 458.61 540.645 452.423C540.645 423.709 563.922 400.431 592.637 400.431C621.351 400.431 644.628 423.709 644.628 452.423C644.628 458.61 643.548 464.545 641.565 470.049L719.631 470.049L719.631 692.779C719.631 707.554 707.654 719.531 692.879 719.531L463.478 719.531L463.478 470.049L543.709 470.049Z" fill="#FFC93D"/>
<path fill-rule="evenodd" clip-rule="evenodd" d="M397.663 490.468C397.663 483.206 396.177 476.292 393.493 470.012H470.148V545.306C475.897 543.117 482.134 541.918 488.651 541.918C517.366 541.918 540.643 565.195 540.643 593.909C540.643 622.623 517.366 645.901 488.651 645.901C482.134 645.901 475.897 644.702 470.148 642.512V719.201H247.846C233.071 719.201 221.094 707.224 221.094 692.449V470.012H297.75C295.066 476.292 293.58 483.206 293.58 490.468C293.58 519.225 316.88 542.537 345.621 542.537C374.363 542.537 397.663 519.225 397.663 490.468Z" fill="#33A1FD"/>
<path fill-rule="evenodd" clip-rule="evenodd" d="M159.98 328.338L87.2082 301.679L164.619 90.3633C169.701 76.4903 185.067 69.3639 198.94 74.4459L410.256 151.857L383.86 223.914C379.148 219.811 373.62 216.484 367.404 214.207C340.119 204.211 309.897 218.228 299.901 245.513C289.906 272.798 303.922 303.02 331.208 313.015C337.424 315.293 343.793 316.324 350.04 316.235L323.644 388.292L250.872 361.634C251.237 368.526 250.244 375.603 247.72 382.493C237.725 409.778 207.503 423.795 180.217 413.799C152.932 403.804 138.916 373.582 148.911 346.297C151.435 339.407 155.249 333.363 159.98 328.338Z" fill="#69CB84"/>
</g>
<defs>
<clipPath id="clip0">
<rect width="700" height="700" rx="120" fill="white"/>
</clipPath>
</defs>
</svg>
